X:1
T: Monsieur, the Count D'Artois's Reel
C:R. Mackintosh
R:Reel
Q: 232
K:C
M:4/4
L:1/8
|:g|e2 dc Ac GE|Gc GE Ac GE|e2 dc Ac GE|Fd Ec dD Dg|
e2 dc Ac GE|Gc GE Ac GE|e2 dc Ac GE|Fd Ec dD Df|
ec gc fg af|ec gc Bd df|ec gc fg af|e1/2f1/2g df ec cf|
ec gc fg af|ec gc Bc de|fd ec dB cF|EG DF EC C:|
